neru-dark-classic/22x22/actions/account-types-credit-card.svg

<svg xmlns="http://www.w3.org/2000/svg" width="22" height="22"><defs><style id="current-color-scheme" type="text/css">.ColorScheme-Text{color:#d3dae3}</style></defs><path class="ColorScheme-Text" d="M4.5 5C3.669 5 3 5.669 3 6.5V7h16v-.5c0-.831-.669-1.5-1.5-1.5h-13zM3 10v5.5c0 .831.669 1.5 1.5 1.5h13c.831 0 1.5-.669 1.5-1.5V10H3zm12.5 2a1.5 1.5 0 0 1 1.5 1.5 1.5 1.5 0 0 1-1.5 1.5 1.5 1.5 0 0 1-1.5-1.5 1.5 1.5 0 0 1 1.5-1.5zM4 13h9v1H4v-1z" fill="currentColor"/><path class="ColorScheme-Text" opacity=".3" fill="currentColor" d="M3 7h16v3H3z"/></svg>

<svg xmlns="http://www.w3.org/2000/svg" width="22" height="22" version="1.1">
 <defs>
  <style id="current-color-scheme" type="text/css">
   .ColorScheme-Text { color:#d3dae3; } .ColorScheme-Highlight { color:#3fb7ff; }
  </style>
 </defs>
 <path style="fill:currentColor" class="ColorScheme-Text" d="M 4.5 5 C 3.669 5 3 5.669 3 6.5 L 3 7 L 19 7 L 19 6.5 C 19 5.669 18.331 5 17.5 5 L 4.5 5 z M 3 10 L 3 15.5 C 3 16.331 3.669 17 4.5 17 L 17.5 17 C 18.331 17 19 16.331 19 15.5 L 19 10 L 3 10 z M 15.5 12 A 1.5 1.5 0 0 1 17 13.5 A 1.5 1.5 0 0 1 15.5 15 A 1.5 1.5 0 0 1 14 13.5 A 1.5 1.5 0 0 1 15.5 12 z M 4 13 L 13 13 L 13 14 L 4 14 L 4 13 z"/>
 <rect style="opacity:0.3;fill:currentColor" class="ColorScheme-Text" width="16" height="3" x="3" y="7"/>
</svg>
